X:1
T:Title
%%score { ( 1 3 ) | ( 2 4 ) }
L:1/8
M:3/4
K:Ab
V:1 treble nm="Grand Piano"
V:3 treble 
V:2 treble 
V:4 treble 
V:1
 z2 z2[Q:1/4=100] [ce][Ac] | [CEB]2 [CEA]2 [CEc][CEA] | [CF]2 [CE]2 [CA][CB] | [DA]2 [DG]2 AB | %4
 F2 E2 [Ace][EAc] | [CEB]2 [CEA]2 [CEc][CEA] | [CF]2 [CE]2 =EF | [DGc]2 [DEB]2 [DG][DE] | %8
[M:2/4] [CEA]4 |[M:1/4] z2 |[M:3/4] [DEG]2 [DEB]2 EB | [CEA]2 [CEc]2 cB | [=DA]2 [DF]2 cA | %13
[M:2/4] B4 |[M:1/4] [ce][Ac] |[M:3/4] [CEB]2 [CEA]2 [CEc][CEA] | z2 z2 .=E2 | %17
 [DGc]2 [DEB]2 [DG][DE] |[M:2/4] [CEA]4 |] %19
V:2
 z2 z2 AE | A,,E, A,E, A,E, | A,,E, A,E, A,E, | B,,E, G,E, G,E, | A,,E, A,E, A,E, | %5
 A,,E, A,E, A,E, | A,,E, A,E, A,E, | E,,E, G,E, B,E, |[M:2/4] A,,E, A,2 |[M:1/4][K:treble] EA | %10
[M:3/4][K:bass] E,,E, G,E, G,E, | A,,E, A,E, A,E, | B,,F, A,F, A,F, |[M:2/4] [A,F]2 z2 | %14
[M:1/4][K:treble] AE |[M:3/4][K:bass] A,,E, A,E, A,E, | A,,E, A,E, A,E, | E,,E, G,E, B,E, | %18
[M:2/4] A,,E, A,2 |] %19
V:3
 x6 | x6 | x6 | z2 z2 D2 | C4 z2 | x6 | z2 z2 C2 | x6 |[M:2/4] x4 |[M:1/4] x2 |[M:3/4] z2 z2 D2 | %11
 z2 z2 [CE]2 | z2 z2 [=DF]2 |[M:2/4] z2 E2 |[M:1/4] x2 |[M:3/4] x6 | [CF]2 [CE]2 C-[CF] | x6 | %18
[M:2/4] x4 |] %19
V:4
 x6 | x6 | x6 | x6 | x6 | x6 | x6 | x6 |[M:2/4] x4 |[M:1/4][K:treble] x2 |[M:3/4][K:bass] x6 | x6 | %12
 x6 |[M:2/4] [E,D]2- [E,G,D]2 |[M:1/4][K:treble] x2 |[M:3/4][K:bass] x6 | x6 | x6 |[M:2/4] x4 |] %19

